dist/img/svg/address.svg

<svg width="15" height="20" viewBox="0 0 15 20" fill="none" xmlns="http://www.w3.org/2000/svg">
<path d="M7.57813 0C6.5625 0 5.58594 0.208333 4.64844 0.625C3.72396 1.02865 2.92318 1.57552 2.24609 2.26562C1.56901 2.94271 1.02214 3.75 0.605469 4.6875C0.201823 5.625 0 6.60156 0 7.61719C0 8.1901 0.078125 8.78906 0.234375 9.41406C0.390625 10.0391 0.572917 10.6185 0.78125 11.1523C0.989583 11.6862 1.28906 12.2786 1.67969 12.9297C2.07031 13.5807 2.41536 14.1341 2.71484 14.5898C3.02734 15.0326 3.44401 15.5794 3.96484 16.2305C4.48568 16.8685 4.88932 17.3568 5.17578 17.6953C5.46224 18.0339 5.86589 18.5026 6.38672 19.1016C6.54297 19.2839 6.66016 19.4141 6.73828 19.4922C6.76432 19.5312 6.8099 19.5768 6.875 19.6289C6.9401 19.694 7.05729 19.7721 7.22656 19.8633C7.39583 19.9544 7.55859 20 7.71484 20H7.77344C8.13802 20 8.46354 19.8307 8.75 19.4922C12.9167 14.7005 15 10.7422 15 7.61719C15 5.44271 14.3359 3.63932 13.0078 2.20703C11.6276 0.735677 9.81771 0 7.57813 0ZM7.8125 18.6523C7.79948 18.6784 7.77344 18.7044 7.73438 18.7305C7.70833 18.7044 7.68229 18.6784 7.65625 18.6523L7.32422 18.2812C6.82943 17.7083 6.44531 17.2656 6.17188 16.9531C5.89844 16.6276 5.51432 16.1589 5.01953 15.5469C4.52474 14.9349 4.13411 14.4206 3.84766 14.0039C3.5612 13.5742 3.22917 13.0599 2.85156 12.4609C2.47396 11.849 2.18099 11.3021 1.97266 10.8203C1.77734 10.3255 1.60807 9.79818 1.46484 9.23828C1.32161 8.66537 1.25 8.125 1.25 7.61719C1.25 6.48438 1.53646 5.42969 2.10938 4.45312C2.68229 3.46354 3.45052 2.68229 4.41406 2.10938C5.39063 1.53646 6.44531 1.25 7.57813 1.25C8.60677 1.25 9.52474 1.43229 10.332 1.79688C11.1393 2.14844 11.7839 2.63021 12.2656 3.24219C12.7604 3.85417 13.1315 4.53125 13.3789 5.27344C13.6263 6.01563 13.75 6.79688 13.75 7.61719C13.75 10.4297 11.7708 14.1081 7.8125 18.6523ZM7.51953 3.76953C7.11589 3.76953 6.71875 3.83464 6.32813 3.96484C5.95052 4.09505 5.60547 4.27734 5.29297 4.51172C4.99349 4.73307 4.72656 5 4.49219 5.3125C4.25781 5.625 4.07552 5.97005 3.94531 6.34766C3.82813 6.72526 3.76953 7.11589 3.76953 7.51953C3.76953 8.5612 4.13411 9.44662 4.86328 10.1758C5.60547 10.9049 6.49089 11.2695 7.51953 11.2695C8.5612 11.2695 9.44662 10.9049 10.1758 10.1758C10.9049 9.44662 11.2695 8.5612 11.2695 7.51953C11.2695 7.01172 11.1719 6.52995 10.9766 6.07422C10.7813 5.60547 10.5143 5.20833 10.1758 4.88281C9.83724 4.54427 9.43359 4.27734 8.96484 4.08203C8.50912 3.8737 8.02734 3.76953 7.51953 3.76953ZM7.51953 10.0195C6.82943 10.0195 6.23698 9.77214 5.74219 9.27734C5.2474 8.78255 5 8.1901 5 7.5C5 6.8099 5.24089 6.22396 5.72266 5.74219C6.21745 5.2474 6.8099 5 7.5 5C8.1901 5 8.77604 5.2474 9.25781 5.74219C9.7526 6.22396 10 6.8099 10 7.5C10 8.35938 9.65495 9.04297 8.96484 9.55078C8.53516 9.86328 8.05339 10.0195 7.51953 10.0195Z" fill="#C78E66"/>
</svg>

<svg width="15" height="20" viewBox="0 0 15 20" fill="none" xmlns="http://www.w3.org/2000/svg"><path d="M7.578 0a7.138 7.138 0 0 0-2.93.625 7.57 7.57 0 0 0-2.402 1.64 7.953 7.953 0 0 0-1.64 2.422A7.334 7.334 0 0 0 0 7.617C0 8.19.078 8.79.234 9.414c.157.625.339 1.204.547 1.738a12 12 0 0 0 .899 1.778c.39.65.735 1.204 1.035 1.66.312.443.729.99 1.25 1.64.52.639.924 1.127 1.21 1.465.287.339.69.808 1.212 1.407.156.182.273.312.351.39a.669.669 0 0 0 .137.137c.065.065.182.143.352.234.169.091.332.137.488.137h.058c.365 0 .69-.17.977-.508C12.917 14.7 15 10.742 15 7.617c0-2.174-.664-3.978-1.992-5.41C11.628.736 9.818 0 7.578 0zm.234 18.652a.221.221 0 0 1-.078.078l-.078-.078-.332-.37c-.495-.574-.879-1.016-1.152-1.329a103.7 103.7 0 0 1-1.152-1.406 25.881 25.881 0 0 1-1.172-1.543 69.68 69.68 0 0 1-.996-1.543 13.091 13.091 0 0 1-.88-1.64 13.249 13.249 0 0 1-.507-1.583 6.695 6.695 0 0 1-.215-1.62c0-1.134.286-2.188.86-3.165A6.418 6.418 0 0 1 4.413 2.11a6.145 6.145 0 0 1 3.164-.859c1.029 0 1.947.182 2.754.547.807.351 1.452.833 1.934 1.445a6.45 6.45 0 0 1 1.113 2.031 7.38 7.38 0 0 1 .371 2.344c0 2.813-1.98 6.491-5.938 11.035zM7.52 3.77c-.404 0-.801.065-1.192.195a3.89 3.89 0 0 0-1.836 1.348 3.752 3.752 0 0 0-.547 1.035A3.931 3.931 0 0 0 3.77 7.52c0 1.041.364 1.927 1.093 2.656.742.729 1.628 1.094 2.657 1.094 1.041 0 1.927-.365 2.656-1.094.729-.73 1.094-1.615 1.094-2.656 0-.508-.098-.99-.293-1.446a3.492 3.492 0 0 0-.801-1.191 3.708 3.708 0 0 0-1.211-.801A3.436 3.436 0 0 0 7.52 3.77zm0 6.25c-.69 0-1.283-.248-1.778-.743A2.425 2.425 0 0 1 5 7.5c0-.69.24-1.276.723-1.758A2.425 2.425 0 0 1 7.5 5c.69 0 1.276.247 1.758.742C9.753 6.224 10 6.81 10 7.5c0 .86-.345 1.543-1.035 2.05-.43.313-.912.47-1.445.47z" fill="#C78E66"/></svg>
